images/section-about-icons/about_icon_3.svg

<svg width="170" height="170" viewBox="0 0 170 170" fill="none" xmlns="http://www.w3.org/2000/svg">
<path d="M75.7308 117.811C75.2572 117.608 74.8637 117.249 74.6123 116.793C74.3608 116.336 74.2659 115.807 74.3423 115.289L78.5542 87.3575H67.3765C67.0221 87.3672 66.6703 87.2939 66.3482 87.1432C66.026 86.9925 65.7422 86.7684 65.5186 86.4882C65.2949 86.2081 65.1375 85.8793 65.0584 85.5274C64.9793 85.1754 64.9806 84.8096 65.0622 84.4583L72.0049 53.8158C72.1271 53.2885 72.4239 52.8201 72.8454 52.4895C73.2669 52.1589 73.7874 51.9864 74.3192 52.0008H97.4615C97.8072 51.9996 98.1488 52.0774 98.4612 52.2283C98.7735 52.3792 99.0488 52.5995 99.2666 52.873C99.4875 53.1495 99.6439 53.4735 99.724 53.8206C99.8042 54.1676 99.806 54.5287 99.7294 54.8765L95.7258 73.2149H106.718C107.152 73.214 107.577 73.3373 107.946 73.5706C108.314 73.804 108.61 74.1381 108.801 74.5348C108.967 74.9156 109.031 75.3343 108.986 75.7484C108.941 76.1624 108.79 76.557 108.547 76.892L78.4616 116.963C78.2583 117.27 77.9868 117.524 77.6692 117.704C77.3515 117.884 76.9967 117.986 76.6334 118C76.3237 117.994 76.0178 117.93 75.7308 117.811V117.811ZM89.9402 77.9291L94.5687 56.7151H76.1705L70.2924 82.6433H83.9695L80.2899 106.874L102.09 77.9291H89.9402Z" fill="#EC7979"/>
<circle cx="85" cy="85" r="45.5" stroke="#EC7979"/>
</svg>

<svg width="170" height="170" fill="none" xmlns="http://www.w3.org/2000/svg"><path d="M75.73 117.811a2.328 2.328 0 0 1-1.118-1.018 2.396 2.396 0 0 1-.27-1.504l4.212-27.931H67.376a2.278 2.278 0 0 1-1.028-.215 2.319 2.319 0 0 1-.83-.655 2.401 2.401 0 0 1-.456-2.03l6.943-30.642c.122-.528.419-.996.84-1.327.422-.33.942-.503 1.474-.488h23.142a2.28 2.28 0 0 1 1 .227c.313.151.588.371.806.645a2.4 2.4 0 0 1 .463 2.004l-4.004 18.338h10.992c.434-.001.859.122 1.228.356.368.233.664.567.855.964a2.392 2.392 0 0 1-.254 2.357l-30.085 40.071a2.329 2.329 0 0 1-.793.741 2.28 2.28 0 0 1-1.036.296 2.481 2.481 0 0 1-.902-.189zm14.21-39.882 4.629-21.214H76.17l-5.879 25.928H83.97l-3.68 24.231 21.801-28.945H89.94z" fill="#EC7979"/><circle cx="85" cy="85" r="45.5" stroke="#EC7979"/></svg>
